icons/assets/dark/book.svg

<svg width="48" height="48" viewBox="0 0 48 48" fill="none" xmlns="http://www.w3.org/2000/svg">
<path d="M24 10C24 10 20.4219 8.48439 18 8C14.1706 7.23412 8 8 8 8V38C8 38 14.1706 37.2341 18 38C20.4219 38.4844 24 40 24 40M24 10C24 10 27.5781 8.48438 30 8C33.8294 7.23412 40 8 40 8V38C40 38 33.8294 37.2341 30 38C27.5781 38.4844 24 40 24 40M24 10V40" stroke="#62646A" stroke-width="3.5" stroke-linecap="round" stroke-linejoin="round"/>
</svg>

<svg width="48" height="48" fill="none" xmlns="http://www.w3.org/2000/svg"><path d="M24 10s-3.578-1.516-6-2C14.17 7.234 8 8 8 8v30s6.17-.766 10 0c2.422.484 6 2 6 2m0-30s3.578-1.516 6-2c3.83-.766 10 0 10 0v30s-6.17-.766-10 0c-2.422.484-6 2-6 2m0-30v30" stroke="#62646A" stroke-width="3.5" stroke-linecap="round" stroke-linejoin="round"/></svg>
